X:702
T:Brenda Stubbert's Reel
C:Joe Buchanan's Scottish Tome - Page 224.1
I:224 1
Z:Carl Allison
C:Jerry Holland
R:Reel
L:1/8
M:4/4
K:C
B | "Am"A/A/A (BA) GAAB | "Am"A/A/A (BA) edde | "G"G2 (BA) BGGB | "Am"c2 (BA) "G"BG-GB |
"Am"A/A/A (BA) GAAB | "Am"A/A/A (BA) edda | "Em"gedB GABd | "Em"{d}e2 dB "Am"eA-A :|
B | "Am"A/A/A a2 A/A/A g2 | "Am"Aage ageg | "G"G/G/G (BA) BGGB | "Am"c2 BA "G"BG-GB |
"Am"A/A/A a2 A/A/A g2 | "Am"Aage agea | "G"gedB GABd | "Em"{B}e2 dB "Am"eA-AB |
"Am"A/A/A a2 A/A/A g2 | "Am"Aage ageg | "G"G/G/G (BA) BGGB | "Am"c2 BA "G"BG-GB |
"Am"A/A/A (BA) GAAB | "Am"A/A/A (BA) edda | "Em"gedB GABd | "Em"{d}e2 dB "Am"eA-A |]

